X:228
T:Indiana Firefly
C:John Reischman
N:From the "Up In The Woods" CD, Transcribed by Michael Falk Transcribed by Mike Stangeland
R:bluegrass
L:1/8
Q:1/4=210
M:4/4
K:C
z6 EG |: "Am"A2 AB AG EG | "D"DE ^FA d2 D^D | "C"E2 c2 {^d}e3e | "G"B2 Bc BA GE | 
"Am"A2 AB AG EG | "D"DE ^FA d2 D^D | "C"Ec BA "G"GA BG |1 A2 AA A2 EG :|2 A2 AA A4 | 
K:E
|: "E"E4 EF GB | "E"e3B "D"=d4 | "A"Bc zc cB AB | "A"ca fe cB AF |1 E4 EF GB | 
"E"e4 =d4 | "G"AB zB BA =GB | "A"=GA zB AG F=D :|2 "G"=GA B2 =g4 | "D"f3=g fe =df | 
"E"=d[ee] ze ee ee | "E"e4 e2 E=G | z8 | 


